X:3
T:Morse Code no. 1: III. “Why? Why not?”
C:David Mandelberg
M:none
L:1/16
Q:"Vivace"
V:Fl name="Flute" subname="Fl" clef=treble
V:Bs name="Bassoon" subname="Bs" clef=treble
V:OrT name="Organ" subname="Or" clef=treble
V:OrB clef=bass
%%score Fl Bs {OrT OrB}
K:C
V:Fl
%%MIDI program 74
V:Bs
%%MIDI program 71
V:OrT
%%MIDI program 20
V:OrB
%%MIDI program 20
[V:Fl] z7 | z15 |\
[V:Bs] z7 | z15 |\
[V:OrT] z7 | !f! C3 z C z E3 z D z C3 |\
[V:OrB] !pp! [C,,G,,C,]7- | [C,,G,,C,]15- |\
[V:Fl] z7 | z8 z1 | z3 | z7 | z3 | z12 z1 | z7 | z8 z1 |\
[V:Bs] z7 | z8 z1 | z3 | z7 | z3 | z12 z1 | z7 | z8 z1 |\
[V:OrT] z7 | C z G3 z C3 | z3 | C z C z D z C | z3 | C3 z D z E3 z C3 | z7 | C3 z c z c'3 |\
[V:OrB] [C,,G,,C,]7- | [C,,G,,C,]8- [C,,G,,C,]1- | [C,,G,,C,]3- | [C,,G,,C,]7- | [C,,G,,C,]3- | [C,,G,,C,]12- [C,,G,,C,]1- | [C,,G,,C,]7- | [C,,G,,C,]8- [C,,G,,C,]1- |\
[V:Fl] z7 | !f! c3 z c z e3 z d z c3 |\
[V:Bs] z7 | z15 |\
[V:OrT] z7 | z15 |\
[V:OrB] [C,,G,,C,]7- | [C,,G,,C,]15- |\
[V:Fl] z7 | c z g3 z e3 | z3 | c z c z d z e | z3 | c3 z d z e3 z c3 | z7 | e3 z c | z3 | e3 z e3 z c3 | z3 | g3 | z7 | C3 z c z c'3 |\
[V:Bs] z7 | z8 z1 | z3 | z7 | z3 | z12 z1 | z7 | z4 z1 | z3 | z8 z3 | z3 | z3 | z7 | z8 z1 |\
[V:OrT] z7 | z8 z1 | z3 | z7 | z3 | z12 z1 | z7 | z4 z1 | z3 | z8 z3 | z3 | z3 | z7 | z8 z1 |\
[V:OrB] [C,,G,,C,]7- | [C,,G,,C,]8- [C,,G,,C,]1- | [C,,G,,C,]3- | [C,,G,,C,]7- | [C,,G,,C,]3- | [C,,G,,C,]12- [C,,G,,C,]1- | [C,,G,,C,]7- | [C,,G,,C,]4- [C,,G,,C,]1- | [C,,G,,C,]3- | [C,,G,,C,]8- [C,,G,,C,]3- | [C,,G,,C,]3- | [C,,G,,C,]3- | [C,,G,,C,]7- | [C,,G,,C,]8- [C,,G,,C,]1- |\
[V:Fl] z7 | z15 |\
[V:Bs] z7 | !f! E3 z D z C3 z c z G3 |\
[V:OrT] z7 | z15 |\
[V:OrB] [C,,G,,C,]7- | [C,,G,,C,]15- |\
[V:Fl] z7 | z8 z1 | z3 | z7 | z3 | z12 z1 | z7 | z4 z1 | z3 | z8 z3 | z3 | z3 | z7 | z8 z1 |\
[V:Bs] z7 | C z D3 z E3 | z3 | C z C z D z E | z3 | C3 z E z D3 z C3 | z7 | C3 z E | z3 | C3 z C3 z E3 | z3 | G3 | z7 | C,3 z C z c3 |\
[V:OrT] z7 | z8 z1 | z3 | z7 | z3 | z12 z1 | z7 | z4 z1 | z3 | z8 z3 | z3 | z3 | z7 | z8 z1 |\
[V:OrB] [C,,G,,C,]7- | [C,,G,,C,]8- [C,,G,,C,]1- | [C,,G,,C,]3- | [C,,G,,C,]7- | [C,,G,,C,]3- | [C,,G,,C,]12- [C,,G,,C,]1- | [C,,G,,C,]7- | [C,,G,,C,]4- [C,,G,,C,]1- | [C,,G,,C,]3- | [C,,G,,C,]8- [C,,G,,C,]3- | [C,,G,,C,]3- | [C,,G,,C,]3- | [C,,G,,C,]7- | [C,,G,,C,]8- [C,,G,,C,]1- |\
[V:Fl] z7 | c z g3 z e3 | z3 | c z c z d z e | z3 | c3 z d z e3 z c3 | z7 | C3 z c z c'3 |\
[V:Bs] z7 | C z D3 z E3 | z3 | C z C z D z E | z3 | C3 z E z D3 z C3 | z7 | C,3 z C z c3 |\
[V:OrT] z7 | z8 z1 | z3 | z7 | z3 | z12 z1 | z7 | z8 z1 |\
[V:OrB] [C,,G,,C,]7- | [C,,G,,C,]8- [C,,G,,C,]1- | [C,,G,,C,]3- | [C,,G,,C,]7- | [C,,G,,C,]3- | [C,,G,,C,]12- [C,,G,,C,]1- | [C,,G,,C,]7- | [C,,G,,C,]8- [C,,G,,C,]1- |\
[V:Fl] z7 | c z g3 z c3 | z3 | c z c z d z c | z3 | c3 z d z e3 z c3 | z7 | e3 z c | z3 | e3 z e3 z c3 | z3 | g3 | z7 | C3 z c z c'3 |\
[V:Bs] z7 | z8 z1 | z3 | z7 | z3 | z12 z1 | z7 | z4 z1 | z3 | z8 z3 | z3 | z3 | z7 | z8 z1 |\
[V:OrT] z7 | C z G3 z C3 | z3 | E z E z F z E | z3 | E3 z F z G3 z C3 | z7 | E3 z C | z3 | E3 z E3 z G3 | z3 | g3 | z7 | C3 z c z c'3 |\
[V:OrB] [C,,G,,C,]7- | [C,,G,,C,]8- [C,,G,,C,]1- | [C,,G,,C,]3- | [C,,G,,C,]7- | [C,,G,,C,]3- | [C,,G,,C,]12- [C,,G,,C,]1- | [C,,G,,C,]7- | [C,,G,,C,]4- [C,,G,,C,]1- | [C,,G,,C,]3- | [C,,G,,C,]8- [C,,G,,C,]3- | [C,,G,,C,]3- | [C,,G,,C,]3- | [C,,G,,C,]7- | [C,,G,,C,]8- [C,,G,,C,]1- |\
[V:Fl] z7 | c z g3 z e3 | z3 | z7 | z3 | c3 z d z e3 z c3 | z7 | C3 z c z c'3 |\
[V:Bs] z7 | C z G3 z E3 | z3 | C z C z D z E | z3 | z12 z1 | z7 | C,3 z C z c3 |\
[V:OrT] z7 | z8 z1 | z3 | z7 | z3 | c'3 z d' z e'3 z c'3 | z7 | c3 z c' z c''3 |\
[V:OrB] [C,,G,,C,]7- | [C,,G,,C,]8- [C,,G,,C,]1- | [C,,G,,C,]3- | [C,,G,,C,]7- | [C,,G,,C,]3- | [C,,G,,C,]12- [C,,G,,C,]1- | [C,,G,,C,]7- | [C,,G,,C,]8- [C,,G,,C,]1- |\
[V:Fl] z7 | z8 z1 | z3 | c z c z d z e | z3 | z12 z1 | z7 | C3 z c z c'3 |\
[V:Bs] z7 | C z G3 z E3 | z3 | C z C z D z E | z3 | z12 z1 | z7 | C,3 z C z c3 |\
[V:OrT] z7 | z8 z1 | z3 | z7 | z3 | C3 z E z D3 z C3 | z7 | G,3 z G z g3 |\
[V:OrB] [C,,G,,C,]7- | [C,,G,,C,]8- [C,,G,,C,]1- | [C,,G,,C,]3- | [C,,G,,C,]7- | [C,,G,,C,]3- | [C,,G,,C,]12- [C,,G,,C,]1- | [C,,G,,C,]7- | [C,,G,,C,]8- [C,,G,,C,]1- |\
[V:Fl] z7 | z6 e3 | z3 | z7 | z3 | c3 z d z e3 z4 | z7 | z4 z1 | z3 | e3 z d3 z c3 | z3 | z3 | z7 | C3 z c z c'3 |\
[V:Bs] z7 | C z G3 z E3 | z3 | C z C z D z E | z3 | C3 z D z E3 z C3 | z7 | G,3 z C | z3 | E3 z D3 z C3 | z3 | C3 | z7 | C,3 z C z c3 |\
[V:OrT] z7 | z8 z1 | z3 | z7 | z3 | z12 z1 | z7 | z4 z1 | z3 | z8 z3 | z3 | z3 | z7 | z8 z1 |\
[V:OrB] [C,,G,,C,]7- | [C,,G,,C,]8- [C,,G,,C,]1- | [C,,G,,C,]3- | [C,,G,,C,]7- | [C,,G,,C,]3- | [C,,G,,C,]12- [C,,G,,C,]1- | [C,,G,,C,]7- | [C,,G,,C,]4- [C,,G,,C,]1- | [C,,G,,C,]3- | [C,,G,,C,]8- [C,,G,,C,]3- | [C,,G,,C,]3- | [C,,G,,C,]3- | [C,,G,,C,]7- | [C,,G,,C,]8- [C,,G,,C,]1- |\
[V:Fl] z7 | z6 e3 | z3 | c z d z e z g | z3 | z12 z1 | z7 | z4 g | z3 | z8 z3 | z3 | z3 | z7 | z8 z1 |\
[V:Bs] z7 | C z G3 z E3 | z3 | C z D z E z G | z3 | C3 z D z C3 z G,3 | z7 | E3 z G | z3 | E3 z D3 z C3 | z3 | G,3 | z7 | C,3 z C z c3 |\
[V:OrT] z7 | z8 z1 | z3 | z7 | z3 | z12 z1 | z7 | z4 z1 | z3 | z8 z3 | z3 | z3 | z7 | z8 z1 |\
[V:OrB] [C,,G,,C,]7- | [C,,G,,C,]8- [C,,G,,C,]1- | [C,,G,,C,]3- | [C,,G,,C,]7- | [C,,G,,C,]3- | [C,,G,,C,]12- [C,,G,,C,]1- | [C,,G,,C,]7- | [C,,G,,C,]4- [C,,G,,C,]1- | [C,,G,,C,]3- | [C,,G,,C,]8- [C,,G,,C,]3- | [C,,G,,C,]3- | [C,,G,,C,]3- | [C,,G,,C,]7- | [C,,G,,C,]8- [C,,G,,C,]1- |\
[V:Fl] z7 | z8 z1 | z3 | z7 | z3 | z12 z1 | z7 | z8 z1 |\
[V:Bs] z7 | C z D3 z E3 | z3 | C z C z D z E | z3 | C3 z E z D3 z C3 | z7 | C,3 z C z c3 |\
[V:OrT] z7 | z8 z1 | z3 | z7 | z3 | z12 z1 | z7 | z8 z1 |\
[V:OrB] [C,,G,,C,]7- | [C,,G,,C,]8- [C,,G,,C,]1- | [C,,G,,C,]3- | [C,,G,,C,]7- | [C,,G,,C,]3- | [C,,G,,C,]12- [C,,G,,C,]1- | [C,,G,,C,]7- | [C,,G,,C,]8- [C,,G,,C,]1- |\
[V:Fl] z7 | c z d3 z e3 | z3 | e z g z f z e | z3 | c'3 z c' z d'3 z c'3 | z7 | c3 z c' z c''3 |\
[V:Bs] z7 | z8 z1 | z3 | z7 | z3 | z12 z1 | z7 | z8 z1 |\
[V:OrT] z7 | z8 z1 | z3 | z7 | z3 | z12 z1 | z7 | z8 z1 |\
[V:OrB] [C,,G,,C,]7- | [C,,G,,C,]8- [C,,G,,C,]1- | [C,,G,,C,]3- | [C,,G,,C,]7- | [C,,G,,C,]3- | [C,,G,,C,]12- [C,,G,,C,]1- | [C,,G,,C,]7- | [C,,G,,C,]8- [C,,G,,C,]1- |\
[V:Fl] z7 | z6 e3 | z3 | c z d z e z g | z3 | z12 z1 | z7 | z4 g | z3 | z8 z3 | z3 | z3 | z7 | z8 z1 |\
[V:Bs] z7 | C z G3 z E3 | z3 | C z D z E z G | z3 | C3 z D z C3 z G,3 | z7 | E3 z G | z3 | E3 z D3 z C3 | z3 | G,3 | z7 | C,3 z C z c3 |\
[V:OrT] z7 | z8 z1 | z3 | z7 | z3 | z12 z1 | z7 | z4 z1 | z3 | z8 z3 | z3 | z3 | z7 | C,3 z C z c3 |\
[V:OrB] [C,,G,,C,]7- | [C,,G,,C,]8- [C,,G,,C,]1- | [C,,G,,C,]3- | [C,,G,,C,]7- | [C,,G,,C,]3- | [C,,G,,C,]12- [C,,G,,C,]1- | [C,,G,,C,]7- | [C,,G,,C,]4- [C,,G,,C,]1- | [C,,G,,C,]3- | [C,,G,,C,]8- [C,,G,,C,]3- | [C,,G,,C,]3- | [C,,G,,C,]3- | [C,,G,,C,]7- | [C,,G,,C,]8- [C,,G,,C,]1- |\
[V:Fl] z7 | c z d3 z e3 | z3 | e z g z f z e | z3 | c'3 z c' z d'3 z c'3 | z7 | c3 z c' z c''3 |\
[V:Bs] z7 | z8 z1 | z3 | z7 | z3 | z12 z1 | z7 | z8 z1 |\
[V:OrT] z7 | z8 z1 | z3 | z7 | z3 | z12 z1 | z7 | z8 z1 |\
[V:OrB] [C,,G,,C,]7- | [C,,G,,C,]8- [C,,G,,C,]1- | [C,,G,,C,]3- | [C,,G,,C,]7- | [C,,G,,C,]3- | [C,,G,,C,]12- [C,,G,,C,]1- | [C,,G,,C,]7- | [C,,G,,C,]8- [C,,G,,C,]1- |\
[V:Fl] z7 | c z g3 z e3 | z3 | c z c z d z e | z3 | c3 z e z d3 z G3 |\
[V:Bs] z7 | C z G3 z E3 | z3 | C z C z D z E | z3 | C3 z E z D3 z G,3 |\
[V:OrT] z7 | z8 z1 | z3 | z7 | z3 | z12 z1 |\
[V:OrB] [C,,G,,C,]7- | [C,,G,,C,]8- [C,,G,,C,]1- | [C,,G,,C,]3- | [C,,G,,C,]7- | [C,,G,,C,]3- | [C,,G,,C,]12- [C,,G,,C,]1- |\
[V:Fl] z7 | c' z g'3 z e' z f'3 z g' |\
[V:Bs] z7 | z12 z1 |\
[V:OrT] z7 | z12 z1 |\
[V:OrB] [C,,G,,C,]7- | [C,,G,,C,]12- [C,,G,,C,]1- |\
[V:Fl] z7 | z12 z1 |\
[V:Bs] z7 | z12 z1 |\
[V:OrT] z7 | C z G3 z D z E3 z C |\
[V:OrB] [C,,G,,C,]7- | [C,,G,,C,]12- [C,,G,,C,]1- |\
[V:Fl] z7 | z12 z1 |\
[V:Bs] z7 | C z E3 z D z C3 z E, |\
[V:OrT] z7 | z12 z1 |\
[V:OrB] [C,,G,,C,]7- | [C,,G,,C,]12- [C,,G,,C,]1- |\
[V:Fl] z7 | c z g3 z e z d3 z c |\
[V:Bs] z7 | z12 z1 |\
[V:OrT] z7 | z12 z1 |\
[V:OrB] [C,,G,,C,]7- | [C,,G,,C,]12- [C,,G,,C,]1- |\
[V:Fl] z7 | z15 | z7 |]
[V:Bs] z7 | z15 | z7 |]
[V:OrT] z7 | z15 | z7 |]
[V:OrB] [C,,G,,C,]7- | [C,,G,,C,]15 | z7 |]
